X:5893
T:Scottish à Pécoil
O:england
C:Esbelin/Pauvert
M:2/4
L:1/16
K:C
gagf e2c2|efec d4|cBcd efed|cBcd e2c2|\
gagf e2c2|efec d4|cBcd efed|c2ed c4:|
|:efed cBcd|e2dc d4|g2g2 g2fe|dedc B2G2|\
efed cBcd|e2dc d4|g2g2 g2fe|dedB c4:|


